X:1
T: The Derry Hornpipe
C:
R:Reel
Q: 232
K:D
M:4/4
L:1/8
|:AG|F2 Ad fd AF|G2 Bd gd BG|F2 Ad fd AF|E2 Ac ec AG|
F2 Ad fd AF|G2 Bd g2 g2|fa fd eg ec|d2 f2 d2:|
|:fg|a2 fd Ad fa|g2 ec Ac eg|a2 fd Ad gf|ed cB A2 fg|
a2 fd Ad fa|gf ef g2 g2|fa fd eg ec|d2 f2 d2:|
